X:285
T: Knocktoran Fair HP
S: "Roche Collection of Traditional Irish Music" [II/36/287]
L: 1/8
M: 4/4
Q: 325
R: hornpipe (%fling)
K: D
z | D2 (3FED FA A2 | (3BAF AF EDB,C | D2 (3FED FA A2 | BdcA d2 d :|
e | fdec dcBA | BcdB AFFA | (3fed ec dcBA | BdcA d2-de |
fdec dcBA | BcdB AFEF | fdec dcBA | Bd (3cBA d2 d |]
